!!!COM: Robert Schumann
!!!CNT: Deutsch
!!!TXO: Deutsch
!!!OTL: "Die Sennin"
!!!LYR: Lenau
!!!OPR: Sechs Gedichte von N. Lenau und Requiem
!!!OPS: Op. 90
!!!ONM: No. 4
!!!ENC: Leigh VanHandel
!!!YOR: Schumann Lieder - Max Friedlaender, ed.,
!!!YOR: New York: C. F. Peters, Vol. 3
!!!ODT: 1850/
**kern	**silbe
*staff1	*
*clefG2	*
*k[f#c#g#d#a#]	*
*M3/8	*
*MM[Nicht schnell]	*
=1	=1
4.r	.
=2	=2
8r	.
8r	.
{24dd#	{Scho2-
24cc#	|
24b	-ne
=3	=3
8ff#	Sen-
8f#}	-nin,}
{24dd#	{noch
24cc#	|
24b	ein-
=4	=4
4.ff#}	mal}
=5	=5
{16.a#	{sin-
32a#	-ge
16dd#	dei-
16ff#	-nen
16ee#	Ruf
16a#	ins
=6	=6
4dd#}	Tal,}
{24dd#	{dass
24ee	|
24ff#	die
=7	=7
16.ff#	fro-
32g#	-he
8.g#	Fel-
16cc#	-sen-
=8	=8
8b	-spra-
8a#}	-che}
{24dd#	{die
24ee	|
24ff#	-nem
=9	=9
16.ff#	hel-
32g#	-len
8.g#	Ruf
16cc#	er-
=10	=10
8b	-wa-
8a#}	-che!
8r	.
=11	=11
4.r	.
=12	=12
8r	.
8r	.
{24dd#	{Horch,
24cc#	|
24b	o
=13	=13
8ff#	Sen-
8f#}	-nin,}
{24dd#	{wie
24cc#	|
24b	dein
=14	=14
4.ff#}	Sang}
=15	=15
{16.a#	{in
32a#	die
16dd#	Brust
16ff#	den
16ee#	Ber-
16a#	-gen
=16	=16
4dd#}	drang,}
{24dd#	{wie
24ee	|
24ff#	dein
=17	=17
16.ff#	Wort
32g#	die
8.g#	Fel-
16cc#	-sen-
=18	=18
8b	-see-
8a#}	-len}
{24dd#	{freu-
24ee	|
24ff#	-dig
=19	=19
16.ff#	fort
32g#	und
8.g#	fort
16cc#	er-
=20	=20
8b	-za2h-
8a#}	-len!}
8r	.
=21	=21
8r	.
8r	.
{16.a#	{A-
32f#	-ber
=22	=22
4g#}	einst,}
8r	.
=23	=23
8r	.
16r	.
{16a#	{wie
16a#	Al-
16g#	-les
=24	=24
8e#}	flieht,}
{8.b	{schei-
16a#	-dest
=25	=25
16g#	du
16g#	mit
8.dd#	dei-
16cc#	-nem
=26	=26
8a#}	Lied,}
{16cc#	{wenn
16cc#	dich
24ee#	Lie-
24dd#	|
24cc#	-be
=27	=27
16.ff#	fort-
32cc#	-be-
16cc#	-wo-
16cc#}	-gen,}
8r	.
=28	=28
{16.g#	{o-
32g#	-der
16b	dich
16e#	der
16f#	Tod
16g#	ent-
=29	=29
8g#	-zo-
8f#}	-gen.}
8r	.
=30	30
8r	.
8r	.
{16dd#	{Und
16b	ver-
=31	=31
8b	-las
8a#}	-sen}
8r	.
=32	=32
8r	.
8r	.
{16.b	{wer-
32g#	-den
=33	=33
4.a#}	stehn,}
=34	=34
{4a#	{trau-
8a#	-rig
=35	=35
4dd#	stumm
8a#	her-
=36	=36
4a#	-u2-
8g#	-ber
=37	=37
4f##}	sehn}
{16f##	{dort
16g#	die
=38	=38
8g##	grau-
8a#	-en
16a#	Fel-
16b	-sen-
=39	=39
8dd#	-zin-
8cc#}	-nen,}
8r	.
=40	=40
{16.b	{und
32b	auf
16ee	dei-
16g#	-ne
16g#	Lie-
16cc#	-der
=41	=41
8b	sin-
8a#}	-nen.}
8r	.
==	==
*-	*-
